static/redhat-logo.svg

<?xml version="1.0" encoding="UTF-8"?>
<svg width="169px" height="48px" viewBox="0 0 169 48" version="1.1" xmlns="http://www.w3.org/2000/svg" xmlns:xlink="http://www.w3.org/1999/xlink">
    <!-- Generator: Sketch 51.2 (57519) - http://www.bohemiancoding.com/sketch -->
    <title>redhat-logo</title>
    <desc>Created with Sketch.</desc>
    <defs></defs>
    <g id="Symbols" stroke="none" stroke-width="1" fill="none" fill-rule="evenodd" opacity="0.5">
        <g id="Testimonials" transform="translate(-889.000000, -312.000000)" fill="#000000" fill-rule="nonzero">
            <g id="redhat-logo" transform="translate(889.000000, 312.000000)">
                <path d="M168.735763,39.546521 C168.735763,40.153945 168.207289,40.6095131 167.590737,40.6095131 C167.018223,40.6095131 166.44571,40.153945 166.44571,39.546521 C166.44571,38.9564519 167.018223,38.4444802 167.590737,38.4444802 C168.207289,38.4444802 168.735763,38.9564519 168.735763,39.546521 Z M169,39.546521 C169,38.7915796 168.383447,38.1971718 167.590737,38.1971718 C166.842065,38.1971718 166.225513,38.7915796 166.225513,39.546521 C166.225513,40.2841073 166.842065,40.8698377 167.590737,40.8698377 C168.383447,40.8698377 169,40.2841073 169,39.546521 Z M167.590737,39.4597461 C167.810934,39.4597461 167.943052,39.4597461 167.943052,39.2428089 C167.943052,39.0345493 167.810934,39.0345493 167.634776,39.0345493 L167.370539,39.0345493 L167.370539,39.4597461 L167.590737,39.4597461 Z M167.370539,39.5899084 L167.370539,40.2407199 L167.150342,40.2407199 L167.150342,38.8306283 L167.678815,38.8306283 C167.987092,38.8306283 168.16325,38.9564519 168.16325,39.2428089 C168.16325,39.5031335 167.987092,39.5899084 167.810934,39.5899084 L168.207289,40.2407199 L167.987092,40.2407199 L167.590737,39.5899084 L167.370539,39.5899084 Z M157.90205,18.9635224 L157.90205,22.3303873 L154.819286,22.3303873 L154.819286,23.8012213 L157.90205,23.8012213 L157.90205,35.3379399 C157.90205,37.2166158 158.210326,38.7915796 159.047077,39.7200707 C159.795748,40.5661257 160.896735,41 162.21792,41 C163.406986,41 164.199696,40.8264503 164.816249,40.5661257 L164.596052,39.1994215 C164.111617,39.3729712 163.451025,39.5031335 162.482156,39.5031335 C160.50038,39.5031335 159.751708,38.075687 159.751708,35.7067331 L159.751708,23.8012213 L164.992407,23.8012213 L164.992407,22.3303873 L159.751708,22.3303873 L159.751708,18.2953559 L157.90205,18.9635224 Z M150.635535,34.7652258 C150.635535,35.0906315 150.547456,35.5028121 150.415338,35.8672666 C149.798785,37.6678451 147.993166,39.546521 144.910402,39.546521 C142.972665,39.546521 141.211086,38.4010927 141.211086,35.7067331 C141.211086,31.3419573 146.539863,30.7345332 150.635535,30.8516793 L150.635535,34.7652258 Z M152.397115,36.2794472 L152.397115,29.1508919 C152.397115,25.8751406 151.428246,21.9095292 146.01139,21.9095292 C144.337889,21.9095292 142.268033,22.3607585 140.638573,23.4931705 L141.211086,24.8078097 C142.53227,23.8793187 144.205771,23.4454443 145.791192,23.4454443 C150.19514,23.4020569 150.635535,27.0292463 150.635535,28.8385023 L150.635535,29.3287803 C143.016705,29.250683 139.273349,31.7801703 139.273349,35.9930901 C139.273349,38.4835288 140.990888,41 144.734244,41 C147.68489,41 149.754746,39.4163587 150.635535,38.0366383 L150.723614,38.0366383 L150.987851,40.6095131 L152.705391,40.6095131 C152.485194,39.2428089 152.397115,37.7502812 152.397115,36.2794472 Z M135.926348,29.5934437 L135.926348,40.6095131 L134.120729,40.6095131 L134.120729,29.7973646 C134.120729,26.4955809 132.843584,23.4931705 129.012149,23.4931705 C126.36978,23.4931705 124.211845,25.3631689 123.419134,27.6366704 C123.198937,28.1790133 123.110858,28.6996625 123.110858,29.4459264 L123.110858,40.6095131 L121.305239,40.6095131 L121.305239,16.5077937 L123.110858,17.0457978 L123.110858,25.6017998 L123.242976,25.6017998 C123.727411,24.5865338 124.6082,23.6016391 125.709188,22.9638438 C126.810175,22.317371 128.04328,21.9095292 129.452544,21.9095292 C131.258162,21.9095292 135.926348,22.7772778 135.926348,29.5934437 Z M117.077449,35.5028121 C117.077449,37.381488 117.121488,39.3729712 117.209567,40.6095131 L113.025816,40.6095131 L112.805619,37.7502812 L112.761579,37.7502812 C111.616553,39.8068456 109.414579,41 106.72817,41 C102.280182,41 98.801063,37.2990519 98.801063,31.7150892 C98.7570235,25.5714286 102.632498,21.9312229 107.080486,21.9312229 C109.634776,21.9312229 111.440395,22.9638438 112.277145,24.313193 L112.409263,24.313193 L112.409263,14 L117.077449,15.301623 L117.077449,35.5028121 Z M112.409263,29.9622369 C112.409263,29.5934437 112.365224,29.1335369 112.277145,28.7560662 C111.83675,26.9771814 110.339408,25.5106862 108.225513,25.5106862 C105.230828,25.5106862 103.513288,28.1356259 103.513288,31.5458782 C103.513288,34.8867106 105.230828,37.3424393 108.181473,37.3424393 C110.075171,37.3424393 111.792711,36.0321388 112.233106,34.0276394 C112.365224,33.6241363 112.409263,33.2162944 112.409263,32.7086614 L112.409263,29.9622369 Z M84.2239939,29.5153463 C84.4441913,27.6366704 85.6332574,25.0594569 88.5398633,25.0594569 C91.7107062,25.0594569 92.4593774,27.8188976 92.4593774,29.5153463 L84.2239939,29.5153463 Z M84.2239939,32.7086614 L96.6871678,32.7520489 C96.7752468,32.3311907 96.8633257,31.6543468 96.8633257,30.7996143 C96.8633257,26.7992929 94.881549,21.9095292 88.8481397,21.9095292 C82.8587699,21.9095292 79.7760061,26.6821469 79.7760061,31.7237667 C79.7760061,37.2990519 83.2991648,40.9566126 89.332574,40.9566126 C92.063022,40.9566126 94.2209567,40.4576571 95.8063781,39.8068456 L95.1017464,36.6439017 C93.6924829,37.1341797 92.151101,37.4639242 89.9931663,37.4639242 C87.0425209,37.4639242 84.4001519,36.0321388 84.2239939,32.7173389 L84.2239939,32.7086614 Z M68.1495824,40.6095131 L72.8618071,40.6095131 L72.8618071,31.1553913 C72.8618071,30.6564358 72.8618071,30.1661578 72.9939256,29.7626547 C73.4343204,27.6670416 74.9316629,26.2699663 77.1776765,26.2699663 C77.7501898,26.2699663 78.1465452,26.3133537 78.58694,26.3957898 L78.58694,22.0396915 C78.2346241,21.9399004 77.9703872,21.9399004 77.4859529,21.9399004 C75.5041762,21.9399004 73.3462415,23.2545396 72.4214123,25.8274144 L72.2452544,25.8274144 L72.0690964,22.352081 L68.0615034,22.352081 C68.1495824,23.9834485 68.1936219,25.784027 68.1936219,28.2310783 L68.1495824,40.6095131 Z M55.5102506,39.546521 C55.5102506,40.153945 54.9817768,40.6095131 54.365224,40.6095131 C53.7486712,40.6095131 53.2642369,40.153945 53.2642369,39.546521 C53.2642369,38.9130644 53.7486712,38.4444802 54.365224,38.4444802 C54.9817768,38.4444802 55.5102506,38.9130644 55.5102506,39.546521 Z M55.730448,39.546521 C55.730448,38.7915796 55.1138952,38.1971718 54.365224,38.1971718 C53.6165528,38.1971718 53,38.7915796 53,39.546521 C53,40.2841073 53.6165528,40.8698377 54.365224,40.8698377 C55.1138952,40.8698377 55.730448,40.2841073 55.730448,39.546521 Z M54.365224,39.4597461 C54.5413819,39.4597461 54.7175399,39.4163587 54.7175399,39.2428089 C54.7175399,39.0345493 54.5413819,39.0345493 54.4092635,39.0345493 L54.1009871,39.0345493 L54.1009871,39.4597461 L54.365224,39.4597461 Z M54.1009871,39.5899084 L54.1009871,40.2407199 L53.8807897,40.2407199 L53.8807897,38.8306283 L54.453303,38.8306283 C54.7615793,38.8306283 54.8936978,38.9564519 54.8936978,39.2428089 C54.8936978,39.5031335 54.8056188,39.5899084 54.5854214,39.5899084 L54.9377373,40.2407199 L54.7175399,40.2407199 L54.365224,39.5899084 L54.1009871,39.5899084 Z" id="Shape"></path>
                <path d="M27.0175638,5.09684443e-15 C12.1014799,5.09684443e-15 0,12.1604006 0,27.1600526 C0,30.1970628 0.49617824,33.1104737 1.40949748,35.8208287 L3.28882745,35.8208287 C4.95739145,35.8208287 6.50300862,35.4456167 7.80273215,34.7393353 C8.13205399,34.5715934 8.50089445,34.4921368 8.89608066,34.4921368 C9.7259717,34.4921368 10.4373069,34.7790636 10.8939665,35.5294876 C11.2803708,36.2357691 11.6448203,36.6109811 12.092698,36.9023222 C12.4747113,37.1495207 13.0060172,37.3614051 13.756871,37.3172625 C14.1125386,37.2731199 14.6526264,37.2333916 14.7843552,36.8581796 C14.9380387,36.4432392 14.7404456,36.0724415 14.2310945,35.8605571 C13.5021955,35.569216 13.3046024,35.1145473 12.9094162,34.4347514 C12.5274028,33.7814411 11.6843389,33.3665007 11.5526102,32.0819514 C11.4252724,30.797402 12.4264108,29.1817832 14.3979509,29.6982515 C15.8294032,30.0690493 16.7471134,31.8435814 17.09839,32.4615776 C17.2784193,32.7705758 17.9151081,33.1457878 18.4332412,32.6646336 C18.9513742,32.1878936 19.4255977,32.1878936 19.812002,32.8058898 C20.1457148,33.3002868 22.5783054,36.5712527 25.2084892,36.6507094 C27.8825825,36.7345803 29.3008619,36.0724415 30.4732477,36.0724415 C31.2899658,36.1165841 31.6851521,36.5271102 32.1505936,36.6109811 C32.9673118,36.7345803 33.5513092,35.9885706 34.4426736,36.0282989 C35.1583997,36.0724415 36.0014637,36.5712527 36.7918361,36.5712527 C37.6261181,36.5712527 39.3385916,35.569216 39.2946821,35.9885706 C39.2507725,36.694852 38.7238575,37.9838156 38.5921288,38.5664978 C38.5043096,38.9814381 38.5921288,39.9569894 38.2847617,40.7471417 C38.1091234,41.5637796 37.3626606,42.5790592 37.1431127,42.8439147 C36.484469,43.8591943 36.0014637,44.1681924 35.4745487,45.2276146 C34.8861604,46.3753219 33.8938039,47.4788867 33.6523012,47.8320274 C33.3098065,48.2734533 35.5184583,47.7878848 36.3088307,47.0374608 C36.9235648,46.4194645 38.1091234,44.5213332 39.9533257,44.1240498 C41.178403,43.8591943 41.4418605,43.3736258 41.3101317,42.9321999 C41.2662221,42.8880573 41.2662221,42.8439147 41.2662221,42.7556296 C41.2662221,42.5790592 41.3540413,42.4466314 41.5296796,42.4024889 C42.7591478,41.8286352 44.515531,41.5196371 46.4475524,41.5196371 C47.5013823,41.5196371 48.7747601,41.6962074 49.6968613,41.8727778 C52.4192552,37.6924745 54,32.5984197 54,27.1600526 C54,12.1604006 41.9248658,0 27.0175638,5.09684443e-15 Z M31.0748089,5.60081179 C32.9321841,5.53018364 34.714913,6.06430898 35.8258253,7.21643057 C37.3626606,8.80997806 39.51423,13.7230483 40.5197593,17.400126 C41.0027647,19.2673576 40.9149455,20.1590379 40.6075785,20.7902769 C40.4363311,21.2228743 40.348512,21.4965584 39.6898683,22.5912946 C39.5581395,22.7811077 39.6459587,22.9929921 39.9533257,22.8649786 C40.9588551,22.3220248 41.7931371,21.6113291 42.2761425,19.9383249 C46.8427387,20.9756758 49.521223,23.3814469 48.9503984,26.6259273 C47.6770207,33.746127 36.0453732,36.1518981 24.7386567,32.7352617 C13.9588551,29.4554673 4.49194991,22.9135355 5.58968938,19.0819587 C6.22637827,16.8571722 9.74353553,15.9036922 14.4330785,16.4157463 C13.7217434,17.8680375 13.7744349,19.5851842 16.8788421,21.4921441 C20.6682387,23.6595452 27.0790372,25.5091198 28.8134656,25.3281351 C29.4633274,25.257507 30.0385429,24.9396803 29.4633274,24.5468113 C28.87933,24.1583565 28.3655879,23.3770327 28.0362661,22.0130267 C27.8606277,21.2493598 27.6498618,20.1899377 23.5794438,19.4130281 C14.8370467,17.740024 15.1707595,15.2547962 15.4342169,13.8245763 C15.4342169,13.8245763 16.2070255,10.3152404 16.5275655,9.07924786 C16.8524963,7.84325534 17.6867783,5.00930108 23.3203773,6.28502193 C26.5740771,7.02220318 28.3260693,6.10403731 29.2218247,5.87449584 C29.8365588,5.71558252 30.4556839,5.62288308 31.0748089,5.60081179 Z M31.7378436,6.86328985 C31.3997398,6.86328985 31.061636,6.86328985 30.6796227,6.9118467 C29.6477476,7.01778892 28.7563832,7.29147297 28.141649,7.59605684 C28.040657,7.64461369 28.0494389,7.78586998 28.1855586,7.75055591 C28.2821597,7.75055591 28.5543991,7.70641332 28.7344284,7.67992776 C30.4117743,7.51218592 31.8212718,7.79028424 31.8915271,8.30675254 C31.9398276,8.69079307 31.2153196,9.10573341 30.1351439,9.35293191 C30.0824524,9.35293191 30.0429338,9.41473154 30.0429338,9.47211691 C30.0429338,9.52508801 30.0868434,9.58688764 30.1351439,9.58688764 C30.5830216,9.71490115 31.1143275,9.81201485 31.6719792,9.81201485 C33.3888437,9.85615744 34.7895593,9.22050414 34.8290779,8.40828049 C34.8729875,7.59605684 33.4942267,6.89418967 31.7466255,6.86328985 L31.7378436,6.86328985 Z M32.9014474,39.3743072 C32.8575378,39.3743072 32.8575378,39.3743072 32.8311921,39.4184498 C32.4974793,39.8333901 32.3481867,39.9569894 32.0935111,40.1732881 C31.483168,40.6588566 30.7893966,40.0850029 30.3415189,39.8333901 C29.3491625,39.2727792 28.5500081,39.62592 28.356806,40.0850029 C28.1592129,40.4822862 28.4007156,41.1002825 28.9188486,41.0119973 C29.6740933,40.8795695 29.709221,41.0561399 30.2536998,41.365138 C31.276793,42.0052055 32.0144739,41.6520648 32.3964872,41.3209954 C32.7126362,41.1002825 32.9014474,40.8795695 33.0375671,40.5705714 C33.3493251,40.001132 33.1078224,39.542049 32.9673118,39.4184498 C32.9673118,39.3743072 32.9234022,39.3743072 32.9014474,39.3743072 Z" id="Shape"></path>
            </g>
        </g>
    </g>
</svg>

<svg width="169" height="48" viewBox="0 0 169 48" xmlns="http://www.w3.org/2000/svg"><title>redhat-logo</title><g fill="#000" fill-rule="nonzero" opacity=".5"><path d="M168.736 39.547c0 .607-.53 1.063-1.145 1.063-.572 0-1.144-.456-1.144-1.063 0-.59.572-1.103 1.145-1.103.617 0 1.146.512 1.146 1.103zm.264 0c0-.755-.617-1.35-1.41-1.35-.748 0-1.364.595-1.364 1.35 0 .737.616 1.323 1.365 1.323.793 0 1.41-.586 1.41-1.323zm-1.41-.087c.22 0 .353 0 .353-.217 0-.208-.132-.208-.308-.208h-.264v.425h.22zm-.22.13v.65h-.22v-1.41h.53c.307 0 .483.126.483.413 0 .26-.176.347-.352.347l.397.65h-.22l-.396-.65h-.22zm-9.468-20.626v3.366h-3.083v1.47h3.082V35.34c0 1.88.308 3.454 1.145 4.382.75.846 1.85 1.28 3.17 1.28 1.19 0 1.983-.174 2.6-.434l-.22-1.367c-.485.173-1.146.303-2.115.303-1.982 0-2.73-1.427-2.73-3.796V23.8h5.24v-1.47h-5.24v-4.035l-1.85.67zm-7.266 15.8c0 .327-.09.74-.22 1.103-.617 1.8-2.423 3.68-5.506 3.68-1.937 0-3.7-1.146-3.7-3.84 0-4.365 5.33-4.972 9.426-4.855v3.913zm1.76 1.515v-7.13c0-3.275-.968-7.24-6.385-7.24-1.672 0-3.742.45-5.37 1.583l.57 1.315c1.322-.93 2.996-1.363 4.58-1.363 4.405-.043 4.846 3.584 4.846 5.394v.49c-7.62-.08-11.363 2.45-11.363 6.663 0 2.49 1.718 5.007 5.46 5.007 2.952 0 5.022-1.584 5.903-2.963h.088l.264 2.573h1.717c-.22-1.367-.308-2.86-.308-4.33zm-16.47-6.687V40.61h-1.805V29.797c0-3.3-1.276-6.304-5.108-6.304-2.642 0-4.8 1.87-5.593 4.144-.22.542-.31 1.063-.31 1.81V40.61h-1.805V16.508l1.806.538v8.556h.133c.484-1.015 1.365-2 2.466-2.638 1.1-.647 2.333-1.054 3.743-1.054 1.805 0 6.473.867 6.473 7.683zm-18.85 5.91c0 1.878.045 3.87.134 5.107h-4.184l-.22-2.86h-.044c-1.145 2.057-3.347 3.25-6.034 3.25-4.448 0-7.927-3.7-7.927-9.285-.043-6.144 3.832-9.784 8.28-9.784 2.555 0 4.36 1.034 5.197 2.383h.132V14l4.667 1.302v20.2zm-4.667-5.54c0-.37-.045-.83-.133-1.207-.44-1.78-1.938-3.245-4.05-3.245-2.996 0-4.714 2.626-4.714 6.036 0 3.34 1.718 5.796 4.668 5.796 1.895 0 3.613-1.31 4.053-3.314.132-.404.176-.812.176-1.32v-2.746zm-28.186-.448c.22-1.878 1.41-4.456 4.316-4.456 3.17 0 3.92 2.76 3.92 4.455h-8.236zm0 3.194l12.463.042a9.87 9.87 0 0 0 .176-1.952c0-4-1.98-8.89-8.015-8.89-5.99 0-9.072 4.772-9.072 9.814 0 5.575 3.523 9.233 9.557 9.233 2.73 0 4.888-.5 6.473-1.15l-.704-3.163c-1.41.49-2.95.82-5.11.82-2.95 0-5.592-1.432-5.768-4.747v-.008zm-16.074 7.9h4.712v-9.455c0-.5 0-.99.132-1.392.44-2.096 1.938-3.493 4.184-3.493.572 0 .97.043 1.41.126V22.04c-.353-.1-.618-.1-1.102-.1-1.982 0-4.14 1.315-5.065 3.887h-.175l-.176-3.475H68.06c.088 1.63.132 3.432.132 5.88L68.15 40.61zm-12.64-1.063c0 .607-.528 1.063-1.145 1.063-.616 0-1.1-.456-1.1-1.063a1.08 1.08 0 0 1 1.1-1.103c.617 0 1.145.47 1.145 1.103zm.22 0c0-.755-.616-1.35-1.365-1.35-.748 0-1.365.595-1.365 1.35 0 .737.617 1.323 1.365 1.323.75 0 1.365-.586 1.365-1.323zm-1.365-.087c.176 0 .353-.044.353-.217 0-.208-.177-.208-.31-.208h-.307v.425h.265zm-.264.13v.65h-.22v-1.41h.573c.31 0 .44.126.44.413 0 .26-.087.347-.308.347l.353.65h-.22l-.353-.65H54.1zM27.018 0C12.1 0 0 12.16 0 27.16c0 3.037.496 5.95 1.41 8.66h1.88c1.667 0 3.213-.374 4.513-1.08.33-.168.698-.248 1.093-.248.83 0 1.54.287 1.998 1.037.386.706.75 1.08 1.2 1.372.38.248.912.46 1.663.415.356-.044.896-.084 1.027-.46.154-.414-.044-.785-.553-.996-.728-.29-.925-.745-1.32-1.425-.383-.654-1.226-1.068-1.357-2.353-.128-1.285.873-2.9 2.845-2.384 1.43.37 2.35 2.146 2.7 2.764.18.31.817.684 1.335.203.518-.477.993-.477 1.38.14.333.495 2.765 3.766 5.395 3.846 2.675.085 4.093-.578 5.265-.578.817.045 1.212.455 1.678.54.817.123 1.4-.623 2.293-.584.715.044 1.558.543 2.35.543.833 0 2.546-1 2.502-.58-.044.705-.57 1.994-.703 2.576-.088.415 0 1.39-.307 2.18-.176.818-.922 1.833-1.142 2.098-.66 1.015-1.142 1.324-1.668 2.384-.59 1.147-1.58 2.25-1.823 2.604-.342.44 1.866-.044 2.657-.795.614-.618 1.8-2.516 3.643-2.913 1.225-.265 1.49-.75 1.357-1.192-.044-.044-.044-.088-.044-.176 0-.177.088-.31.264-.354 1.23-.573 2.986-.882 4.918-.882 1.053 0 2.327.176 3.25.353C52.417 37.693 54 32.598 54 27.16 54 12.16 41.925 0 27.018 0zm4.057 5.6c1.857-.07 3.64.464 4.75 1.616 1.538 1.594 3.69 6.507 4.695 10.184.483 1.867.395 2.76.088 3.39-.172.433-.26.707-.918 1.8-.132.19-.044.403.263.275 1.006-.543 1.84-1.254 2.323-2.927 4.567 1.038 7.245 3.443 6.674 6.688-1.273 7.12-12.905 9.526-24.21 6.11C13.96 29.455 4.49 22.913 5.59 19.08c.636-2.225 4.154-3.178 8.843-2.666-.71 1.452-.66 3.17 2.446 5.076 3.788 2.168 10.2 4.017 11.933 3.836.65-.07 1.226-.388.65-.78-.584-.39-1.097-1.17-1.427-2.535-.175-.764-.386-1.823-4.457-2.6-8.743-1.673-8.41-4.158-8.146-5.588 0 0 .773-3.51 1.094-4.746.324-1.237 1.16-4.07 6.792-2.795 3.254.737 5.006-.18 5.902-.41a8.623 8.623 0 0 1 1.853-.274zm.663 1.263c-.338 0-.676 0-1.058.05-1.032.105-1.924.378-2.538.683-.1.05-.093.19.044.155.096 0 .368-.044.548-.07 1.678-.168 3.087.11 3.158.627.048.384-.677.8-1.757 1.046-.053 0-.092.062-.092.12 0 .052.044.114.092.114.448.128.98.225 1.537.225 1.717.044 3.118-.59 3.157-1.404.043-.812-1.336-1.514-3.083-1.545h-.01zm1.163 32.51c-.042 0-.042 0-.07.045-.333.415-.482.54-.736.755-.61.486-1.305-.088-1.752-.34-.993-.56-1.792-.207-1.985.252-.198.397.044 1.015.562.927.754-.132.79.044 1.334.353 1.023.64 1.76.287 2.142-.044.317-.22.505-.44.642-.75.31-.57.07-1.028-.07-1.152 0-.044-.045-.044-.067-.044z"/></g></svg>
